icons/guidance-icons/manoeuvers-sdk/right-roundabout-exit9.svg

<svg width="80" height="80" viewBox="0 0 80 80" fill="none" xmlns="http://www.w3.org/2000/svg">
<g clip-path="url(#clip0_15464_42611)">
<path d="M75.8801 35.5C75.9601 34.68 76.0001 33.84 76.0001 33C76.0001 32.16 76.0001 31.32 75.8801 30.5H70.3301C70.1033 28.6074 69.6118 26.7559 68.8701 25L73.6501 22.24C72.9606 20.7183 72.1232 19.268 71.1501 17.91L66.3401 20.69C65.1962 19.1798 63.8503 17.8339 62.3401 16.69L65.1201 11.88C63.7621 10.9069 62.3118 10.0695 60.7901 9.38L58.0001 14.13C56.241 13.3874 54.3861 12.8959 52.4901 12.67V7.12C51.6801 7 50.8401 7 50.0001 7C49.1601 7 48.3201 7 47.5001 7.12V12.67C45.6075 12.8968 43.756 13.3883 42.0001 14.13L39.2301 9.35C37.7084 10.0395 36.2581 10.8769 34.9001 11.85L37.6801 16.66C36.1699 17.8039 34.824 19.1498 33.6801 20.66L28.8501 17.9C27.877 19.258 27.0396 20.7083 26.3501 22.23L31.1301 25C29.5388 28.7587 29.1058 32.9069 29.8866 36.9132C30.6673 40.9195 32.6262 44.6016 35.5124 47.4877C38.3985 50.3739 42.0806 52.3328 46.0869 53.1135C50.0932 53.8943 54.2414 53.4613 58.0001 51.87L60.7601 56.65C62.2818 55.9605 63.7321 55.1231 65.0901 54.15L62.3101 49.34C63.8203 48.1961 65.1662 46.8502 66.3101 45.34L71.1201 48.12C72.0932 46.762 72.9306 45.3117 73.6201 43.79L68.8701 41C69.6127 39.2409 70.1042 37.386 70.3301 35.49L75.8801 35.5ZM50.0001 48.5C46.9345 48.5 43.9377 47.5909 41.3888 45.8878C38.8398 44.1846 36.8531 41.7638 35.68 38.9316C34.5068 36.0993 34.1999 32.9828 34.7979 29.9761C35.396 26.9694 36.8722 24.2076 39.0399 22.0398C41.2077 19.8721 43.9695 18.3959 46.9762 17.7978C49.9829 17.1998 53.0994 17.5067 55.9317 18.6799C58.7639 19.853 61.1847 21.8397 62.8879 24.3887C64.591 26.9376 65.5001 29.9344 65.5001 33C65.4975 37.11 63.8636 41.051 60.9573 43.9572C58.0511 46.8635 54.1101 48.4974 50.0001 48.5Z" fill="#C3CDDE" fill-opacity="0.35"/>
<path d="M57.0001 30.9201C57.0001 38.1001 53.7201 41.0901 46.4701 42.7001L45.6901 40.0801C50.1101 38.9801 52.4701 37.4001 53.0401 34.0801C52.6148 34.6537 52.0572 35.1161 51.4147 35.4278C50.7722 35.7395 50.0639 35.8912 49.3501 35.8701C46.6201 35.8701 44.3501 33.6901 44.3501 30.1301C44.3501 26.5701 47.1301 24.1301 50.6401 24.1301C54.8601 24.1401 57.0001 26.9201 57.0001 30.9201ZM53.2301 31.5501C53.2801 28.0601 52.5201 26.8201 50.6801 26.8201C49.0901 26.8201 48.0801 27.9101 48.0801 30.0101C48.0801 32.3801 49.0801 33.2101 50.4201 33.2101C50.9901 33.1912 51.5462 33.0293 52.0373 32.7393C52.5283 32.4492 52.9385 32.0402 53.2301 31.5501ZM70.8701 30.6201C70.336 25.8427 68.179 21.3931 64.7594 18.0145C61.3398 14.636 56.8646 12.5329 52.0811 12.0565C47.2976 11.5802 42.4955 12.7594 38.4767 15.3972C34.4579 18.035 31.4658 21.9718 30.0001 26.5501C29.6738 27.5509 29.0399 28.4232 28.1888 29.0426C27.3377 29.6621 26.3128 29.9972 25.2601 30.0001H14.0001L23.1401 21.3601L19.1001 16.7401L2.84009 33.0001L19.1001 49.2601L23.1601 44.6901L14.0001 36.0501H25.2601C27.5839 36.0491 29.8478 35.3122 31.7269 33.945C33.606 32.5779 35.0039 30.6508 35.7201 28.4401C36.5023 25.9907 37.9009 23.7835 39.7818 22.0303C41.6627 20.2772 43.9627 19.037 46.461 18.4288C48.9592 17.8206 51.5719 17.8647 54.0482 18.5571C56.5245 19.2494 58.7812 20.5667 60.6017 22.3824C62.4223 24.1982 63.7455 26.4514 64.4444 28.9258C65.1433 31.4002 65.1945 34.0128 64.5929 36.5127C63.9913 39.0125 62.7572 41.3158 61.009 43.2013C59.2609 45.0869 57.0574 46.4914 54.6101 47.2801C52.3994 47.9962 50.4722 49.3941 49.1051 51.2733C47.738 53.1524 47.0011 55.4162 47.0001 57.7401V80.0001H53.0001V57.7401C53.003 56.6874 53.338 55.6625 53.9575 54.8114C54.577 53.9603 55.4493 53.3264 56.4501 53.0001C61.056 51.4896 65.0027 48.4415 67.6281 44.3667C70.2535 40.292 71.3982 35.4385 70.8701 30.6201Z" fill="white"/>
</g>
<defs>
<clipPath id="clip0_15464_42611">
<rect width="80" height="80" fill="white"/>
</clipPath>
</defs>
</svg>

<svg xmlns="http://www.w3.org/2000/svg" viewBox="0 0 80 80"><path d="M75.88,35.5c.08-.82.12-1.66.12-2.5s0-1.68-.12-2.5H70.33A20.36,20.36,0,0,0,68.87,25l4.78-2.76a25.51,25.51,0,0,0-2.5-4.33l-4.81,2.78a20.69,20.69,0,0,0-4-4l2.78-4.81a25.51,25.51,0,0,0-4.33-2.5L58,14.13a20.36,20.36,0,0,0-5.51-1.46V7.12C51.68,7,50.84,7,50,7s-1.68,0-2.5.12v5.55A20.36,20.36,0,0,0,42,14.13L39.23,9.35a25.51,25.51,0,0,0-4.33,2.5l2.78,4.81a20.69,20.69,0,0,0-4,4L28.85,17.9a25.51,25.51,0,0,0-2.5,4.33L31.13,25A20.5,20.5,0,0,0,58,51.87l2.76,4.78a25.51,25.51,0,0,0,4.33-2.5l-2.78-4.81a20.69,20.69,0,0,0,4-4l4.81,2.78a25.51,25.51,0,0,0,2.5-4.33L68.87,41a20.36,20.36,0,0,0,1.46-5.51ZM50,48.5A15.5,15.5,0,1,1,65.5,33,15.51,15.51,0,0,1,50,48.5Z" style="fill:#d1def4;opacity:0.35000000000000003"/><path d="M57,30.92c0,7.18-3.28,10.17-10.53,11.78l-.78-2.62c4.42-1.1,6.78-2.68,7.35-6a4.43,4.43,0,0,1-3.69,1.79c-2.73,0-5-2.18-5-5.74s2.78-6,6.29-6C54.86,24.14,57,26.92,57,30.92Zm-3.77.63c.05-3.49-.71-4.73-2.55-4.73-1.59,0-2.6,1.09-2.6,3.19,0,2.37,1,3.2,2.34,3.2A3.4,3.4,0,0,0,53.23,31.55Zm17.64-.93A21,21,0,0,0,30,26.55,5,5,0,0,1,25.26,30H14V30l9.14-8.64L19.1,16.74,2.84,33,19.1,49.26l4.06-4.57L14,36.05v0H25.26a11,11,0,0,0,10.46-7.61A15,15,0,1,1,54.61,47.28,11,11,0,0,0,47,57.74V80h6V57.74A5,5,0,0,1,56.45,53,21.13,21.13,0,0,0,70.87,30.62Z" style="fill:#fff"/></svg>
